T: Plethen Peswar Luf
M: 4/4
L: 1/8
K: Dmaj
D2 FA dA F2 | D2 GB dB G2 | D2 FA dAFd | AdcB AGFE |D2 FA dA F2 | D2 GB dB G2 | edcB AGFE | D2 D2 D2 :|dAFA dAFA | dBGB dBGB | dAFA dAFA | cAEA cA E2 |dAFA dAFA | dBGB dBGB | edcB AGFE | D2 d2 d2 :|
